X: 20804
T: Johnny O'Leary's
R: slide
M: 12/8
K: Dmajor
|:ABA F2A d2e f3|fga cde dcB A2B|
ABA F2A d2e f3|fga cde d3 d3:|
a2f d2f aba a2f|g3 e2d cde gfg|
a2f d2f aba aba|g2e cde d3 d3|
a2f d2f aba a2f|g3 e2d cde gfe|
d2e f2g aba agf|g2e cde d3 d2B||

